svgs/solid/browser.svg

<svg xmlns="http://www.w3.org/2000/svg" viewBox="0 0 512 512"><!--! Font Awesome Pro 6.4.2 by @fontawesome - https://fontawesome.com License - https://fontawesome.com/license (Commercial License) Copyright 2023 Fonticons, Inc. --><path d="M0 96C0 60.7 28.7 32 64 32H448c35.3 0 64 28.7 64 64V416c0 35.3-28.7 64-64 64H64c-35.3 0-64-28.7-64-64V96zm64 32a32 32 0 1 0 64 0 32 32 0 1 0 -64 0zm384 0c0-13.3-10.7-24-24-24H184c-13.3 0-24 10.7-24 24s10.7 24 24 24H424c13.3 0 24-10.7 24-24z"/></svg>

<svg xmlns="http://www.w3.org/2000/svg" viewBox="0 0 512 512"><!--! Font Awesome Pro 6.1.1 by @fontawesome - https://fontawesome.com License - https://fontawesome.com/license (Commercial License) Copyright 2022 Fonticons, Inc. --><path d="M0 96C0 60.65 28.65 32 64 32H448C483.3 32 512 60.65 512 96V416C512 451.3 483.3 480 448 480H64C28.65 480 0 451.3 0 416V96zM96 160C113.7 160 128 145.7 128 128C128 110.3 113.7 96 96 96C78.33 96 64 110.3 64 128C64 145.7 78.33 160 96 160zM448 128C448 114.7 437.3 104 424 104H184C170.7 104 160 114.7 160 128C160 141.3 170.7 152 184 152H424C437.3 152 448 141.3 448 128z"/></svg>
